status/symbolic/bluetooth-active-symbolic.svg

<svg height="16" viewBox="0 0 16 16" width="16" xmlns="http://www.w3.org/2000/svg">
  <path d="m10.115 10.574-1.128 1.128v-2.256m0-5.148 1.128 1.128-1.128 1.122m2.826-1.122-3.426-3.426h-.6v4.548l-2.754-2.748-.846.846 3.354 3.354-3.354 3.348.846.852 2.754-2.754v4.554h.6l3.426-3.426-2.58-2.574z" fill="#bebebe" />
</svg>

<?xml version="1.0" encoding="UTF-8" standalone="no"?>
<svg
   xmlns:dc="http://purl.org/dc/elements/1.1/"
   xmlns:cc="http://creativecommons.org/ns#"
   xmlns:rdf="http://www.w3.org/1999/02/22-rdf-syntax-ns#"
   xmlns:svg="http://www.w3.org/2000/svg"
   xmlns="http://www.w3.org/2000/svg"
   xmlns:sodipodi="http://sodipodi.sourceforge.net/DTD/sodipodi-0.dtd"
   xmlns:inkscape="http://www.inkscape.org/namespaces/inkscape"
   version="1.1"
   width="16"
   height="16"
   viewBox="0 0 16 16"
   id="svg2"
   inkscape:version="0.91 r13725"
   sodipodi:docname="bluetooth-active-symbolic.svg">
  <metadata
     id="metadata10">
    <rdf:RDF>
      <cc:Work
         rdf:about="">
        <dc:format>image/svg+xml</dc:format>
        <dc:type
           rdf:resource="http://purl.org/dc/dcmitype/StillImage" />
        <dc:title></dc:title>
      </cc:Work>
    </rdf:RDF>
  </metadata>
  <defs
     id="defs8">
    <filter
       style="color-interpolation-filters:sRGB"
       id="filter7554">
      <feBlend
         mode="darken"
         in2="BackgroundImage"
         id="feBlend7556" />
    </filter>
  </defs>
  <sodipodi:namedview
     pagecolor="#ffffff"
     bordercolor="#666666"
     borderopacity="1"
     objecttolerance="10"
     gridtolerance="10"
     guidetolerance="10"
     inkscape:pageopacity="0"
     inkscape:pageshadow="2"
     inkscape:window-width="640"
     inkscape:window-height="480"
     id="namedview6"
     showgrid="false"
     inkscape:zoom="17.883909"
     inkscape:cx="-2.0176142"
     inkscape:cy="13.881673"
     inkscape:current-layer="svg2" />
  <path
     d="m 10.115,10.574 -1.128,1.128 0,-2.256 m 0,-5.148 1.128,1.128 -1.128,1.122 M 11.813,5.426 8.387,2 l -0.6,0 0,4.548 L 5.033,3.8 4.187,4.646 7.541,8 4.187,11.348 5.033,12.2 7.787,9.446 l 0,4.554 0.6,0 3.426,-3.426 L 9.233,8 11.813,5.426 Z"
     id="path4"
     style="fill:#bebebe;fill-opacity:1"
     inkscape:connector-curvature="0" />
  <g
     style="fill:#ffffff;fill-opacity:1"
     id="g5-4"
     transform="matrix(0.01149582,0,0,0.01149582,-12.421986,8.277992)" />
</svg>
